X: 1
T: String Quartet in D Major opus 71 no 2 mvt 2
C: Franz Joseph Haydn
%%abc-version 2.0
%%abcx-abcm2ps-target-version 5.9.1 (29 Sep 2008)
%%abc-creator hum2abc beta
%%abcx-conversion-date 2021/02/14 14:38:27
%%abc-copyright Copyright (c) 1994, 2000 Center for Computer Assisted Research in the Humanities
%%abc-edited-by Frances Bennion
%%abcx-initial-encoding-date 1997/04/15
%%gracespace 0 6 6
%%humdrum-veritas 1291908083
%%humdrum-veritas-data 1090804977
%%linebreak <none>
%%barnumbers 0
L: 1/16
M: 3/4
N: Derived from op71n2-02.krn
Q: "Adagio cantabile"
%%staves [1 2 3 4]
V: 1
V: 2
V: 3 clef=alto
V: 4 clef=bass
K: A
[V:1]E4 A4 c4 [I:setbarnb2]|
[V:2]C12 |
[V:3]E,12 |
[V:4]A,,12- |
[V:1]F4 B4 d4 |
[V:2]D12- |
[V:3]F,12 |
[V:4]A,,12- |
[V:1]G4 e4 f2d2 |
[V:2]D4 [G8B,8] |
[V:3]B,4 D8 |
[V:4]A,,4 A,,8- |
[V:1]c2B2 A2z4 c2 |
[V:2]c2D2 C2z4 A2 |
[V:3]E4 z8 |
[V:4]A,,4 z>A,,C,>E, A,2z2 |
[V:1]d>ec>d B2z4 d2 |
[V:2]B>cA>B G2z4 B2 |
[V:3](3:2:2E8- E//F<DE <CD<B,C/|
[V:4]z12 |
[V:1]e>fg>a e2>c'2 b>ag3/f/ |
[V:2][c8E8] A,2B,2 |
[V:3]A,8 E,2F,2 |
[V:4]z8 C,2D,2 |
[V:1](3e4>>f4 d(3cBA (3GFE(3DCB, |
[V:2]C4 D8 |
[V:3]A,4 G,8 |
[V:4]E,8 E,,4 |
[V:1]A,4 z4 A4 |
[V:2]C2<E2 C4 A,4 |
[V:3]A,E,CE, A,E,CE, A,E,CE, |
[V:4]A,,4 z8 |
[V:1]d8 f3e |
[V:2]F8 D4 |
[V:3]A,F,DF, A,F,DF, A,G,B,G, |
[V:4]A,,12- |
[V:1]e4 c4 A4 |
[V:2]C4 z4 C4 |
[V:3]A,E,CE, A,E,CE, A,E,CE, |
[V:4]A,,4 z8 |
[V:1]d8 =f3e |
[V:2]F8 D4 |
[V:3]A,F,DF, A,F,DF, A,G,B,G, |
[V:4]A,,12- |
[V:1]e12 |
[V:2]C8 c4 |
[V:3]A,E,CE, A,E,CE, A,E,CA, |
[V:4]A,,12 |
[V:1]^e12 |
[V:2]B2G2 ^E2G2 A2BG |
[V:3]G,B,CB, G,B,DB, CA,G,B, |
[V:4]C,12- |
[V:1]f8 e4 |
[V:2]A12 |
[V:3]A,FAF A,CAC A,EAE |
[V:4]C,8 =C,4 |
[V:1]^d4 e4 ^A3B |
[V:2]F4 G4 C4 |
[V:3]A,FAF B,EGE =G,E=GE |
[V:4]B,,12 |
[V:1]B4 z8 |
[V:2]B,4 z8 |
[V:3]^D4 z8 |
[V:4]zB,,E,^D, G,F,B,^A, CB,=A,F, |
[V:1]B4 e4 g4 |
[V:2]z2G2 z2G2 z2G2 |
[V:3]z2E2 z2E2 z2E2 |
[V:4]z12 |
[V:1]c2>c2 f4 a3(3g/f/e/ |
[V:2]z2A2 z2[c2A2] z2[c2A2] |
[V:3]z2E2 z2E2 z2E2 |
[V:4]E,4 z8 |
[V:1]^d2b4 <b4 c'^d' |
[V:2]z2^D2 z2D2 z2F2 |
[V:3]zBAF E^DAF EDCB, |
[V:4]B,,4 F,4 A,4 |
[V:1]e'2b4 <b4 g'2 |
[V:2]z2E2 z2E2 z2Ez |
[V:3]zEB,A, G,A,G,F, E,G,B,E |
[V:4]G,4 B,4 E4 |
[V:1]a'2f'2 ^d'8 |
[V:2]z^dfg abag fedf |
[V:3]^D2D2 z2B,2 z2B,2 |
[V:4]B,,4 F,4 A,4 |
[V:1]e'2b2 (3:2:2b4-b/e'g' e'|
[V:2]zBef gagf eBGB |
[V:3]z2E,2 z2E,2 z2E,2 |
[V:4]G,4 B,4 E4 |
[V:1]a'2f'2 ^d'8 |
[V:2]^D2D2 z2B,2 z2B,2 |
[V:3]z^DFG ABAG FEDF |
[V:4]B,,4 F,4 A,4 |
[V:1](3:2:2e'8- e'e2|
[V:2]E=GEG EGEG EGEG |
[V:3]B,=G,B,G, B,G,B,G, B,G,B,G, |
[V:4]=G,E,G,E, G,E,G,E, G,E,G,E, |
[V:1](3:2:2=g8- g=c2|
[V:2]E=GEG EGEG EGEG |
[V:3]=C=G,CG, CG,CG, CG,CG, |
[V:4]=C,E,C,E, C,E,C,E, C,E,C,E, |
[V:1]=f8 e4 |
[V:2]=FFFF FFFF =GGGG |
[V:3]=CCCC CCCC ^CCCC |
[V:4]A,,A,,A,,A,, A,,A,,A,,A,, ^A,,A,,A,,A,, |
[V:1]B4 >^A4 =A2^D2 |
[V:2]G4 >=G4 F4 |
[V:3]E8 ^D2A,2 |
[V:4]B,,E,G,E, B,6 B,,2 |
[V:1]E2G2 B2ag fe^dc |
[V:2]E4 z8 |
[V:3]G,4 z8 |
[V:4]E,4 z8 |
[V:1]B4 >^A4 =A2^D2 |
[V:2]G4 >=G4 F4 |
[V:3]E8 ^D2A,2 |
[V:4]zB,,C,^D, E,F,=G,E, B,2B,,2 |
[V:1]EGB^d feag fedc |
[V:2]E4 z8 |
[V:3]G,4 z8 |
[V:4]E,4 z8 |
[V:1]B4 >^A4 =A2^D2 |
[V:2]G4 >=G4 F4 |
[V:3]E8 ^D2A,2 |
[V:4]zB,,C,^D, E,F,=G,E, B,2B,,2 |
[V:1]E4 A4 G4 |
[V:2]EDCB, C4 B,4 |
[V:3]G,B,A,G, A,B,C^D EDCB, |
[V:4]E,12- |
[V:1]FGA^A B^B^dc =B=AGF |
[V:2]^D12 |
[V:3]A,12 |
[V:4]E,12 |
[V:1]E2z2 E2z2 E2z2 |
[V:2]E2z2 B,2z2 B,2z2 |
[V:3]G,2z2 G,2z2 G,2z2 |
[V:4]zC,B,,A,, G,,A,,G,,F,, E,,^D,,E,,D,, |
[V:1]E12 |
[V:2]B,12 |
[V:3]G,12 |
[V:4]E,,8 D,,4 |
[V:1][=G,4E4] =G4 [=c4E4] |
[V:2]=C2[=G,2E2] [E2G,2][E2G,2] [E2G,2][G,2E2] |
[V:3]=G,2=C,2 E,2G,2 E,2C,2 |
[V:4]=C,,2C,,2 C,,2C,,2 C,,2C,,2 |
[V:1][D4B4] d4 =f4 |
[V:2][=F2=G,2][F2G,2] [G,2F2][F2G,2] [B2D2][B2D2] |
[V:3][B,2D2][D2B,2] [B,2D2][B,2D2] [=G,2D2][D2G,2] |
[V:4][=C,,2=C,2][C,2C,,2] [C,,2C,2][C,2C,,2] [C,2C,,2][C,2C,,2] |
[V:1][e4=c4] =g4 =c'4 |
[V:2][=c8E8] e4 |
[V:3][E2=G,2][E2G,2] [E2G,2][G,2E2] =G2G2 |
[V:4]=C,,2=C2 C2C2 C2C2 |
[V:1]a4 =g4 z2e2 |
[V:2]=f4 e4 z2=c2 |
[V:3]=F2A2 =c2z6 |
[V:4]=C4 z>=C,E,>=G, C2z2 |
[V:1]=f>=ge>f d2z4 f2 |
[V:2]d>e=c>d B2z4 d2 |
[V:3](3:2:2=G8- G//A<=FG <EF<DE/|
[V:4]z12 |
[V:1]=g>ab>=c' g6 ^g2 |
[V:2]e4 z2E2 D2D2 |
[V:3]=C4 z2C2 _B,2B,2 |
[V:4]z4 =C4 _B,4 |
[V:1]a12- |
[V:2]C>DE>F =G2F2 G2E2 |
[V:3]A,>B,C>D E2D2 E2C2 |
[V:4]A,4 z8 |
[V:1]abc'd' a2a2 z2a2 |
[V:2]^E4 z2=F2 =E2E2 |
[V:3]D4 z2D2 =C2C2 |
[V:4]z4 D4 =C4 |
[V:1](3:2:2a8- a//=c'<ba/|
[V:2]^D>EF>=G A2G2 A2F2 |
[V:3]B,>C^D>E F2E2 F2D2 |
[V:4]B,4 z4 B,4 |
[V:1]g>ab>=c' d'>c'b>a g>=fe3/d/ |
[V:2]E2[B,2D2] [D2B,2][B,2D2] [D2B,2][B,2D2] |
[V:3]E2G,2 G,2G,2 G,2G,2 |
[V:4]E,2E,2 E,2E,2 E,2E,2 |
[V:1]=c>BA>G A>E=C>B, A,>CB,3/A,/ |
[V:2]=C2C2 C2C2 ^D2D2 |
[V:3]A,2A,2 A,2A,2 =C2C2 |
[V:4]E,2E,2 E,2E,2 E,2E,2 |
[V:1]G,B,E^D FEGF AGBA |
[V:2]E4 z8 |
[V:3]B,4 z8 |
[V:4]E,4 z8 |
[V:1]cBdc edcB AGFE |
[V:2]D8 z4 |
[V:3][E8B,8] z4 |
[V:4]G,8 z4 |
[V:1]^DEz2 GAz2 ^Bcz2 |
[V:2]z2C2 z2E2 z2E2 |
[V:3]z2E2 z2C2 z2C2 |
[V:4]z2A,2 z2A,2 z2A,2 |
[V:1](3^EGFz2 (3^AcBz2 (3cedz2 |
[V:2]z2F2 z2F2 z2F2 |
[V:3]z2D2 z2D2 z2D2 |
[V:4]z2A,2 z2A,2 z2A,2 |
[V:1](3G,B,D(3EGB (3deg(3bd'c' (3bag(3fed |
[V:2]z2(3:2:2E8- [EB,] |
[V:3]z2(3:2:2D8- D|
[V:4]z2(3:2:2G,8- G,|
[V:1](3cde(3dcB A2B2 =c2^c2 |
[V:2][C4E4] z8 |
[V:3]C4 z8 |
[V:4]A,4 z8 |
[V:1](3def(3edc B2c2 d2^d2 |
[V:2]G4 z8 |
[V:3]D4 z8 |
[V:4]B,4 z8 |
[V:1](3efg(3abc' (3d'c'b(3agf (3edc(3BAG |
[V:2]A,4 z4 B,4 |
[V:3]E,4 z4 F,4 |
[V:4]C,4 z4 D,4 |
[V:1](3FED(3CB,A, (3G,A,B,(3CDE (3FGA(3BdG |
[V:2]C4 z4 D4 |
[V:3]A,4 z4 D4 |
[V:4]E,4 z4 E,4 |
[V:1]A8 c4 |
[V:2](3CDE(3DCB, (3A,CE(3DCB, (3A,CE(3DCB, |
[V:3][E12A,12] |
[V:4]=G,,12 |
[V:1]d8 e3d/e/ |
[V:2](3A,D=F(3AFD (3A,DF(3AFD (3A,CE(3AEC |
[V:3]D4 =F4 =G4 |
[V:4]=F,,8 E,,4 |
[V:1]=f4 A7 G/A/ |
[V:2](3A,D=F(3AFD (3A,=CB,(3A,B,C (3A,CB,(3A,B,C |
[V:3]=F4 F,8 |
[V:4]D,,4 ^D,,8 |
[V:1]G2e4 <e4 fe |
[V:2]B,4 (3zd'b(3agf (3edc(3BAG |
[V:3]E,4 G4 B4 |
[V:4]E,4 B,4 D4 |
[V:1]e2>c2 A4 z4 |
[V:2]A4 z8 |
[V:3]A4 (3zCB,(3A,G,F, (3E,D,C,(3E,A,C |
[V:4]C4 E4 A4 |
[V:1](3z4>>d'4 b(3agf (3edc(3BAG |
[V:2]G2e4 <e4 fe |
[V:3]D2>B,2 G,4 z4 |
[V:4]E,4 B,4 D4 |
[V:1](3:2:2a8- aA2|
[V:2]e2A=c AcAc AcAc |
[V:3]E=CEC ECEC ECEC |
[V:4]=CA,CA, CA,CA, CA,CA, |
[V:1](3:2:2=c'8- c'=f2|
[V:2]A=cAc AcAc AcAc |
[V:3]=F=CFC FCFC FCFC |
[V:4]=F,A,F,A, F,A,F,A, F,A,F,A, |
[V:1]_b8 a4 |
[V:2]_BBBB BBBB =cccc |
[V:3]=FFFF FFFF ^FFFF |
[V:4]D,D,D,D, D,D,D,D, ^D,D,D,D, |
[V:1]e4 >^d4 =d2G2 |
[V:2]c4 >=c4 B2B2 |
[V:3]A8 G2D2 |
[V:4]E,A,CA, E6 E,2 |
[V:1](3Acd(3efg (3agb(3ac'b (3d'c'b(3agf |
[V:2]A4 z8 |
[V:3]C4 z8 |
[V:4]A,4 z8 |
[V:1]e4 >^d4 =d2G2 |
[V:2]c4 >=c4 B2B2 |
[V:3]A8 G2D2 |
[V:4](3E,,A,,C,(3E,F,G, (3A,E,A,(3=CB,A, E2E,2 |
[V:1](3Acd(3efg (3agb(3ac'b (3d'c'b(3agf |
[V:2]A4 z8 |
[V:3]C4 z8 |
[V:4]A,,4 z8 |
[V:1]e4 >^d4 =d2G2 |
[V:2]c4 >=c4 B2B2 |
[V:3]A8 G2D2 |
[V:4](3E,,E,=F,(3^F,=G,^G, (3A,E,A,(3=CB,A, E2E,2 |
[V:1](3A^df(3afd (3efg(3abc' d'2z2 |
[V:2]A4 [B6E6] z2 |
[V:3]z2^D2 z2=D2 z4 |
[V:4]F,4 G,6 z2 |
[V:1](3z4>>e'4 d'(3c'ba (3gae(3gae |
[V:2]E4 A4 c4 |
[V:3][E12C12] |
[V:4]A,,12- |
[V:1](3z4>>f'4 e'(3d'c'b (3^abf(3abf |
[V:2]F4 B4 d4 |
[V:3][F12D12] |
[V:4]A,,12- |
[V:1](3z4>>d'4 c'(3bag (3fed(3cdB |
[V:2]G2e4 <e4 fd |
[V:3][G12B,12] |
[V:4]A,,12- |
[V:1](3Aed(3cBA (3GFE(3DCB, (3A,G,A,(3B,CD |
[V:2]c2e4 <e4 G2 |
[V:3][C4A4] z4 B,4 |
[V:4]A,,4 z4 E,4 |
[V:1]C2e4 <e4 G2 |
[V:2](3Aed(3cBA (3GFE(3DCE (3DB,C(3DED |
[V:3](3EcB(3AGF (3EDC(3B,A,C (3B,G,A,(3B,CB, |
[V:4]A,,4 z4 E,4 |
[V:1]A2z2 A2z2 A2z2 |
[V:2]C2z2 C2z2 C2z2 |
[V:3]A,2z2 E2z2 E2z2 |
[V:4](3zA,G,(3F,E,D, (3C,F,E,(3D,C,B,, (3A,,E,,G,,(3A,,E,,G,, |
[V:1]A2z2 [c2a2E2]z6 |]
[V:2]C2z2 [c2E2A,2]z6 |]
[V:3]E2z2 [E2A,2]z6 |]
[V:4]A,,2z2 [A,2A,,2E,2]z6 |]

